Candle/c2.svg

<svg xmlns="http://www.w3.org/2000/svg" viewBox="0 0 1200 800" preserveAspectRatio="none" width="1200" height="800">
 <title>
  ROOT canvas
 </title>
 <path d="M0,0H1200V800H0Z" style="fill: none;"></path>
 <g>
  <g transform="translate(120,80)">
   <title></title>
   <path d="M0,0H960V640H0Z" style="fill: white; stroke: black; stroke-width: 1;"></path>
   <svg x="0" y="0" overflow="hidden" width="960" height="640" viewBox="0 0 960 640">
    <g>
     <path d="M4,356v8h16v-8zM28,276v8h16v-8zM52,280v112h16v-112zM76,300v80h16v-80zM100,284v83h16v-83zM124,262v126h16v-126zM148,258v113h16v-113zM172,243v126h16v-126zM196,269v98h16v-98zM220,268v112h16v-112zM244,267v116h16v-116zM268,272v100h16v-100zM292,256v113h16v-113zM316,271v108h16v-108zM340,264v112h16v-112zM364,263v111h16v-111zM388,267v108h16v-108zM412,263v111h16v-111zM436,269v103h16v-103zM460,264v110h16v-110zM484,270v105h16v-105zM508,265v106h16v-106zM532,265v106h16v-106zM556,266v111h16v-111zM580,261v109h16v-109zM604,267v107h16v-107zM628,265v111h16v-111zM652,263v110h16v-110zM676,266v102h16v-102zM700,253v111h16v-111zM724,263v101h16v-101zM748,270v108h16v-108zM772,256v101h16v-101zM796,251v120h16v-120zM820,272v104h16v-104zM844,258v138h16v-138zM868,292v104h16v-104zM892,268v78h16v-78zM940,356v8h16v-8z" style="stroke: #00009a; stroke-width: 1; fill: none;"></path>
     <path d="M4,360h16M4,352h16M4,368h16M12,356v-4M12,364v4M28,280h16M28,272h16M28,288h16M36,276v-4M36,284v4M52,336h16M52,272h16M52,400h16M60,280v-8M60,392v8M76,356h16M76,288h16M76,480h16M84,300v-12M84,380v100M100,344h16M100,176h16M100,448h16M108,284v-108M108,367v81M124,328h16M124,176h16M124,464h16M132,262v-86M132,388v76M148,325h16M148,96h16M148,528h16M156,258v-162M156,371v157M172,302h16M172,112h16M172,544h16M180,243v-131M180,369v175M196,321h16M196,96h16M196,496h16M204,269v-173M204,367v129M220,319h16M220,80h16M220,512h16M228,268v-188M228,380v132M244,323h16M244,112h16M244,560h16M252,267v-155M252,383v177M268,324h16M268,128h16M268,512h16M276,272v-144M276,372v140M292,311h16M292,64h16M292,544h16M300,256v-192M300,369v175M316,324h16M316,80h16M316,528h16M324,271v-191M324,379v149M340,319h16M340,64h16M340,560h16M348,264v-200M348,376v184M364,320h16M364,80h16M364,544h16M372,263v-183M372,374v170M388,323h16M388,96h16M388,544h16M396,267v-171M396,375v169M412,317h16M412,80h16M412,544h16M420,263v-183M420,374v170M436,319h16M436,96h16M436,528h16M444,269v-173M444,372v156M460,316h16M460,96h16M460,544h16M468,264v-168M468,374v170M484,321h16M484,96h16M484,544h16M492,270v-174M492,375v169M508,317h16M508,80h16M508,544h16M516,265v-185M516,371v173M532,317h16M532,80h16M532,544h16M540,265v-185M540,371v173M556,322h16M556,80h16M556,528h16M564,266v-186M564,377v151M580,319h16M580,96h16M580,544h16M588,261v-165M588,370v174M604,318h16M604,80h16M604,544h16M612,267v-187M612,374v170M628,322h16M628,80h16M628,544h16M636,265v-185M636,376v168M652,319h16M652,80h16M652,544h16M660,263v-183M660,373v171M676,315h16M676,112h16M676,528h16M684,266v-154M684,368v160M700,312h16M700,128h16M700,544h16M708,253v-125M708,364v180M724,313h16M724,96h16M724,528h16M732,263v-167M732,364v164M748,327h16M748,112h16M748,512h16M756,270v-158M756,378v134M772,318h16M772,112h16M772,480h16M780,256v-144M780,357v123M796,315h16M796,48h16M796,496h16M804,251v-203M804,371v125M820,336h16M820,160h16M820,480h16M828,272v-112M828,376v104M844,340h16M844,96h16M844,480h16M852,258v-162M852,396v84M868,360h16M868,240h16M868,544h16M876,292v-52M876,396v148M892,340h16M892,256h16M892,352h16M900,268v-12M900,346v6M940,360h16M940,352h16M940,368h16M948,356v-4M948,364v4" style="stroke: #00009a; stroke-width: 1; fill: none;"></path>
     <path d="M4,360h16M28,280h16M52,336h16M76,356h16M100,331h16M124,326h16M148,318h16M172,310h16M196,318h16M220,324h16M244,325h16M268,323h16M292,313h16M316,323h16M340,319h16M364,319h16M388,321h16M412,319h16M436,320h16M460,318h16M484,322h16M508,317h16M532,318h16M556,322h16M580,317h16M604,319h16M628,321h16M652,318h16M676,319h16M700,313h16M724,312h16M748,323h16M772,314h16M796,307h16M820,330h16M844,328h16M868,362h16M892,317h16M940,360h16" style="stroke: #00009a; stroke-width: 1; stroke-dasharray: 3,3; fill: none;"></path>
     <path d="M176,564l8,8m0,-8l-8,8M200,548l8,8m0,-8l-8,8M200,532l8,8m0,-8l-8,8M200,20l8,8m0,-8l-8,8M272,580l8,8m0,-8l-8,8M272,532l8,8m0,-8l-8,8M272,84l8,8m0,-8l-8,8M272,4l8,8m0,-8l-8,8M296,584l8,8m0,-8l-8,8M296,579l8,8m0,-8l-8,8M296,551l8,8m0,-8l-8,8M296,546l8,8m0,-8l-8,8M320,564l8,8m0,-8l-8,8M320,552l8,8m0,-8l-8,8M320,547l8,8m0,-8l-8,8M344,612l8,8m0,-8l-8,8M344,580l8,8m0,-8l-8,8M344,564l8,8m0,-8l-8,8M344,36l8,8m0,-8l-8,8M368,580l8,8m0,-8l-8,8M368,568l8,8m0,-8l-8,8M368,563l8,8m0,-8l-8,8M368,567l8,8m0,-8l-8,8M368,546l8,8m0,-8l-8,8M368,555l8,8m0,-8l-8,8M368,49l8,8m0,-8l-8,8M368,48l8,8m0,-8l-8,8M368,52l8,8m0,-8l-8,8M392,584l8,8m0,-8l-8,8M392,579l8,8m0,-8l-8,8M392,564l8,8m0,-8l-8,8M392,551l8,8m0,-8l-8,8M392,546l8,8m0,-8l-8,8M392,555l8,8m0,-8l-8,8M392,545l8,8m0,-8l-8,8M392,544l8,8m0,-8l-8,8M392,68l8,8m0,-8l-8,8M416,568l8,8m0,-8l-8,8M416,563l8,8m0,-8l-8,8M416,567l8,8m0,-8l-8,8M416,562l8,8m0,-8l-8,8M416,571l8,8m0,-8l-8,8M416,548l8,8m0,-8l-8,8M416,49l8,8m0,-8l-8,8M416,48l8,8m0,-8l-8,8M416,52l8,8m0,-8l-8,8M416,36l8,8m0,-8l-8,8M440,612l8,8m0,-8l-8,8M440,552l8,8m0,-8l-8,8M440,547l8,8m0,-8l-8,8M440,551l8,8m0,-8l-8,8M440,530l8,8m0,-8l-8,8M440,539l8,8m0,-8l-8,8M440,81l8,8m0,-8l-8,8M440,80l8,8m0,-8l-8,8M440,52l8,8m0,-8l-8,8M464,564l8,8m0,-8l-8,8M464,552l8,8m0,-8l-8,8M464,547l8,8m0,-8l-8,8M464,71l8,8m0,-8l-8,8M464,66l8,8m0,-8l-8,8M464,75l8,8m0,-8l-8,8M488,596l8,8m0,-8l-8,8M488,584l8,8m0,-8l-8,8M488,579l8,8m0,-8l-8,8M488,567l8,8m0,-8l-8,8M488,562l8,8m0,-8l-8,8M488,571l8,8m0,-8l-8,8M488,561l8,8m0,-8l-8,8M488,560l8,8m0,-8l-8,8M488,548l8,8m0,-8l-8,8M488,556l8,8m0,-8l-8,8M488,542l8,8m0,-8l-8,8M488,77l8,8m0,-8l-8,8M488,90l8,8m0,-8l-8,8M488,73l8,8m0,-8l-8,8M488,66l8,8m0,-8l-8,8M488,47l8,8m0,-8l-8,8M488,52l8,8m0,-8l-8,8M512,552l8,8m0,-8l-8,8M512,547l8,8m0,-8l-8,8M512,551l8,8m0,-8l-8,8M512,66l8,8m0,-8l-8,8M512,75l8,8m0,-8l-8,8M512,65l8,8m0,-8l-8,8M512,64l8,8m0,-8l-8,8M512,36l8,8m0,-8l-8,8M512,44l8,8m0,-8l-8,8M536,564l8,8m0,-8l-8,8M536,72l8,8m0,-8l-8,8M536,67l8,8m0,-8l-8,8M536,52l8,8m0,-8l-8,8M536,36l8,8m0,-8l-8,8M560,580l8,8m0,-8l-8,8M560,552l8,8m0,-8l-8,8M560,547l8,8m0,-8l-8,8M560,551l8,8m0,-8l-8,8M584,564l8,8m0,-8l-8,8M584,552l8,8m0,-8l-8,8M584,547l8,8m0,-8l-8,8M608,600l8,8m0,-8l-8,8M608,595l8,8m0,-8l-8,8M608,564l8,8m0,-8l-8,8M608,548l8,8m0,-8l-8,8M632,584l8,8m0,-8l-8,8M632,579l8,8m0,-8l-8,8M632,583l8,8m0,-8l-8,8M632,548l8,8m0,-8l-8,8M656,580l8,8m0,-8l-8,8M656,52l8,8m0,-8l-8,8M680,580l8,8m0,-8l-8,8M680,532l8,8m0,-8l-8,8M680,84l8,8m0,-8l-8,8M680,68l8,8m0,-8l-8,8M752,580l8,8m0,-8l-8,8" style="stroke: #00009a; fill: none;"></path>
    </g>
   </svg>
   <g>
    <g transform="translate(0,640)">
     <path d="M0,0h960" style="stroke: black; stroke-width: 1;"></path>
     <path d="M0,-24v24m24,-12v12m24,-12v12m24,-12v12m24,-12v12m24,-24v24m24,-12v12m24,-12v12m24,-12v12m24,-12v12m24,-24v24m24,-12v12m24,-12v12m24,-12v12m24,-12v12m24,-24v24m24,-12v12m24,-12v12m24,-12v12m24,-12v12m24,-24v24m24,-12v12m24,-12v12m24,-12v12m24,-12v12m24,-24v24m24,-12v12m24,-12v12m24,-12v12m24,-12v12m24,-24v24m24,-12v12m24,-12v12m24,-12v12m24,-12v12m24,-24v24m24,-12v12m24,-12v12m24,-12v12m24,-12v12m24,-24v24" style="stroke: black; stroke-width: 1;"></path>
     <g font-family="Arial" font-size="28" space="preserve">
      <text fill="black" text-anchor="middle" dy=".8em" transform="translate(0,6)">
       -4
      </text>
      <text fill="black" text-anchor="middle" dy=".8em" transform="translate(120,6)">
       -3
      </text>
      <text fill="black" text-anchor="middle" dy=".8em" transform="translate(240,6)">
       -2
      </text>
      <text fill="black" text-anchor="middle" dy=".8em" transform="translate(360,6)">
       -1
      </text>
      <text fill="black" text-anchor="middle" dy=".8em" transform="translate(480,6)">
       0
      </text>
      <text fill="black" text-anchor="middle" dy=".8em" transform="translate(600,6)">
       1
      </text>
      <text fill="black" text-anchor="middle" dy=".8em" transform="translate(720,6)">
       2
      </text>
      <text fill="black" text-anchor="middle" dy=".8em" transform="translate(840,6)">
       3
      </text>
      <text fill="black" text-anchor="middle" dy=".8em" transform="translate(960,6)">
       4
      </text>
     </g>
    </g>
    <g>
     <path d="M0,0v640" style="stroke: black; stroke-width: 1;"></path>
     <path d="M36,640h-36m18,-16h-18m18,-16h-18m18,-16h-18m18,-16h-18m36,-16h-36m18,-16h-18m18,-16h-18m18,-16h-18m18,-16h-18m36,-16h-36m18,-16h-18m18,-16h-18m18,-16h-18m18,-16h-18m36,-16h-36m18,-16h-18m18,-16h-18m18,-16h-18m18,-16h-18m36,-16h-36m18,-16h-18m18,-16h-18m18,-16h-18m18,-16h-18m36,-16h-36m18,-16h-18m18,-16h-18m18,-16h-18m18,-16h-18m36,-16h-36m18,-16h-18m18,-16h-18m18,-16h-18m18,-16h-18m36,-16h-36m18,-16h-18m18,-16h-18m18,-16h-18m18,-16h-18m36,-16h-36" style="stroke: black; stroke-width: 1;"></path>
     <g font-family="Arial" font-size="28" space="preserve">
      <text fill="black" text-anchor="end" dy=".4em" transform="translate(-4,640)">
       -4
      </text>
      <text fill="black" text-anchor="end" dy=".4em" transform="translate(-4,560)">
       -3
      </text>
      <text fill="black" text-anchor="end" dy=".4em" transform="translate(-4,480)">
       -2
      </text>
      <text fill="black" text-anchor="end" dy=".4em" transform="translate(-4,400)">
       -1
      </text>
      <text fill="black" text-anchor="end" dy=".4em" transform="translate(-4,320)">
       0
      </text>
      <text fill="black" text-anchor="end" dy=".4em" transform="translate(-4,240)">
       1
      </text>
      <text fill="black" text-anchor="end" dy=".4em" transform="translate(-4,160)">
       2
      </text>
      <text fill="black" text-anchor="end" dy=".4em" transform="translate(-4,80)">
       3
      </text>
      <text fill="black" text-anchor="end" dy=".4em" transform="translate(-4)">
       4
      </text>
     </g>
    </g>
   </g>
  </g>
  <g transform="translate(120,4)" font-family="Arial" font-size="40" space="preserve">
   <path d="M0,0H960V53H0Z" style="fill: none;"></path>
   <text fill="black" text-anchor="middle" dy=".8em" transform="translate(480)">
    py vs px
   </text>
  </g>
  <g transform="translate(936,52)" font-family="Arial" font-size="20" space="preserve">
   <path d="M0,0H240V212H0Z" style="fill: white; stroke: black; stroke-width: 1;"></path>
   <text fill="black" text-anchor="middle" dy=".4em" transform="translate(120,18)">
    hpxpy
   </text>
   <text fill="black" text-anchor="start" dy=".4em" transform="translate(12,53)">
    Entries
   </text>
   <text fill="black" text-anchor="end" dy=".4em" transform="translate(228,53)">
    25000
   </text>
   <text fill="black" text-anchor="start" dy=".4em" transform="translate(12,88)">
    Mean x
   </text>
   <text fill="black" text-anchor="end" dy=".4em" transform="translate(228,88)">
    0.003181
   </text>
   <text fill="black" text-anchor="start" dy=".4em" transform="translate(12,124)">
    Mean y
   </text>
   <text fill="black" text-anchor="end" dy=".4em" transform="translate(228,124)">
    0.009441
   </text>
   <text fill="black" text-anchor="start" dy=".4em" transform="translate(12,159)">
    Std Dev x
   </text>
   <text fill="black" text-anchor="end" dy=".4em" transform="translate(228,159)">
    1.004
   </text>
   <text fill="black" text-anchor="start" dy=".4em" transform="translate(12,194)">
    Std Dev y
   </text>
   <text fill="black" text-anchor="end" dy=".4em" transform="translate(228,194)">
    0.9972
   </text>
   <path d="M0,35h240" style="stroke: black; stroke-width: 1;"></path>
  </g>
 </g>
</svg>

<svg xmlns="http://www.w3.org/2000/svg" viewBox="0 0 1200 800" preserveAspectRatio="none" width="1200" height="800">
 <title>
  ROOT canvas
 </title>
 <path d="M0,0H1200V800H0Z" style="fill: none;"></path>
 <g>
  <g transform="translate(120,80)">
   <title></title>
   <path d="M0,0H960V640H0Z" style="fill: white; stroke: black; stroke-width: 1;"></path>
   <svg x="0" y="0" overflow="hidden" width="960" height="640" viewBox="0 0 960 640">
    <g>
     <path d="M4,356V364H20V356ZM28,276V284H44V276ZM52,280V392H68V280ZM76,300V380H92V300ZM100,284V367H116V284ZM124,262V388H140V262ZM148,258V371H164V258ZM172,243V369H188V243ZM196,269V367H212V269ZM220,268V380H236V268ZM244,267V383H260V267ZM268,272V372H284V272ZM292,256V369H308V256ZM316,271V379H332V271ZM340,264V376H356V264ZM364,263V374H380V263ZM388,267V375H404V267ZM412,263V374H428V263ZM436,269V372H452V269ZM460,264V374H476V264ZM484,270V375H500V270ZM508,265V371H524V265ZM532,265V371H548V265ZM556,266V377H572V266ZM580,261V370H596V261ZM604,267V374H620V267ZM628,265V376H644V265ZM652,263V373H668V263ZM676,266V368H692V266ZM700,253V364H716V253ZM724,263V364H740V263ZM748,270V378H764V270ZM772,256V357H788V256ZM796,251V371H812V251ZM820,272V376H836V272ZM844,258V396H860V258ZM868,292V396H884V292ZM892,268V346H908V268ZM940,356V364H956V356Z" style="stroke: #00009a; stroke-width: 1; fill: none;"></path>
     <path d="M4,360H20M4,352H20M4,368H20M12,356V352M12,364V368M28,280H44M28,272H44M28,288H44M36,276V272M36,284V288M52,336H68M52,272H68M52,400H68M60,280V272M60,392V400M76,356H92M76,288H92M76,480H92M84,300V288M84,380V480M100,344H116M100,176H116M100,448H116M108,284V176M108,367V448M124,328H140M124,176H140M124,464H140M132,262V176M132,388V464M148,325H164M148,96H164M148,528H164M156,258V96M156,371V528M172,302H188M172,112H188M172,544H188M180,243V112M180,369V544M196,321H212M196,96H212M196,496H212M204,269V96M204,367V496M220,319H236M220,80H236M220,512H236M228,268V80M228,380V512M244,323H260M244,112H260M244,560H260M252,267V112M252,383V560M268,324H284M268,128H284M268,512H284M276,272V128M276,372V512M292,311H308M292,64H308M292,544H308M300,256V64M300,369V544M316,324H332M316,80H332M316,528H332M324,271V80M324,379V528M340,319H356M340,64H356M340,560H356M348,264V64M348,376V560M364,320H380M364,80H380M364,544H380M372,263V80M372,374V544M388,323H404M388,96H404M388,544H404M396,267V96M396,375V544M412,317H428M412,80H428M412,544H428M420,263V80M420,374V544M436,319H452M436,96H452M436,528H452M444,269V96M444,372V528M460,316H476M460,96H476M460,544H476M468,264V96M468,374V544M484,321H500M484,96H500M484,544H500M492,270V96M492,375V544M508,317H524M508,80H524M508,544H524M516,265V80M516,371V544M532,317H548M532,80H548M532,544H548M540,265V80M540,371V544M556,322H572M556,80H572M556,528H572M564,266V80M564,377V528M580,319H596M580,96H596M580,544H596M588,261V96M588,370V544M604,318H620M604,80H620M604,544H620M612,267V80M612,374V544M628,322H644M628,80H644M628,544H644M636,265V80M636,376V544M652,319H668M652,80H668M652,544H668M660,263V80M660,373V544M676,315H692M676,112H692M676,528H692M684,266V112M684,368V528M700,312H716M700,128H716M700,544H716M708,253V128M708,364V544M724,313H740M724,96H740M724,528H740M732,263V96M732,364V528M748,327H764M748,112H764M748,512H764M756,270V112M756,378V512M772,318H788M772,112H788M772,480H788M780,256V112M780,357V480M796,315H812M796,48H812M796,496H812M804,251V48M804,371V496M820,336H836M820,160H836M820,480H836M828,272V160M828,376V480M844,340H860M844,96H860M844,480H860M852,258V96M852,396V480M868,360H884M868,240H884M868,544H884M876,292V240M876,396V544M892,340H908M892,256H908M892,352H908M900,268V256M900,346V352M940,360H956M940,352H956M940,368H956M948,356V352M948,364V368" style="stroke: #00009a; stroke-width: 1; fill: none;"></path>
     <path d="M4,360H20M28,280H44M52,336H68M76,356H92M100,331H116M124,326H140M148,318H164M172,310H188M196,318H212M220,324H236M244,325H260M268,323H284M292,313H308M316,323H332M340,319H356M364,319H380M388,321H404M412,319H428M436,320H452M460,318H476M484,322H500M508,317H524M532,318H548M556,322H572M580,317H596M604,319H620M628,321H644M652,318H668M676,319H692M700,313H716M724,312H740M748,323H764M772,314H788M796,307H812M820,330H836M844,328H860M868,362H884M892,317H908M940,360H956" style="stroke: #00009a; stroke-width: 1; stroke-dasharray: 3,3; fill: none;"></path>
     <path d="M176,564l8,8m0,-8l-8,8M200,548l8,8m0,-8l-8,8M200,532l8,8m0,-8l-8,8M200,20l8,8m0,-8l-8,8M272,580l8,8m0,-8l-8,8M272,532l8,8m0,-8l-8,8M272,84l8,8m0,-8l-8,8M272,4l8,8m0,-8l-8,8M296,584l8,8m0,-8l-8,8M296,579l8,8m0,-8l-8,8M296,551l8,8m0,-8l-8,8M296,546l8,8m0,-8l-8,8M320,564l8,8m0,-8l-8,8M320,552l8,8m0,-8l-8,8M320,547l8,8m0,-8l-8,8M344,612l8,8m0,-8l-8,8M344,580l8,8m0,-8l-8,8M344,564l8,8m0,-8l-8,8M344,36l8,8m0,-8l-8,8M368,580l8,8m0,-8l-8,8M368,568l8,8m0,-8l-8,8M368,563l8,8m0,-8l-8,8M368,567l8,8m0,-8l-8,8M368,546l8,8m0,-8l-8,8M368,555l8,8m0,-8l-8,8M368,49l8,8m0,-8l-8,8M368,48l8,8m0,-8l-8,8M368,52l8,8m0,-8l-8,8M392,584l8,8m0,-8l-8,8M392,579l8,8m0,-8l-8,8M392,564l8,8m0,-8l-8,8M392,551l8,8m0,-8l-8,8M392,546l8,8m0,-8l-8,8M392,555l8,8m0,-8l-8,8M392,545l8,8m0,-8l-8,8M392,544l8,8m0,-8l-8,8M392,68l8,8m0,-8l-8,8M416,568l8,8m0,-8l-8,8M416,563l8,8m0,-8l-8,8M416,567l8,8m0,-8l-8,8M416,562l8,8m0,-8l-8,8M416,571l8,8m0,-8l-8,8M416,548l8,8m0,-8l-8,8M416,49l8,8m0,-8l-8,8M416,48l8,8m0,-8l-8,8M416,52l8,8m0,-8l-8,8M416,36l8,8m0,-8l-8,8M440,612l8,8m0,-8l-8,8M440,552l8,8m0,-8l-8,8M440,547l8,8m0,-8l-8,8M440,551l8,8m0,-8l-8,8M440,530l8,8m0,-8l-8,8M440,539l8,8m0,-8l-8,8M440,81l8,8m0,-8l-8,8M440,80l8,8m0,-8l-8,8M440,52l8,8m0,-8l-8,8M464,564l8,8m0,-8l-8,8M464,552l8,8m0,-8l-8,8M464,547l8,8m0,-8l-8,8M464,71l8,8m0,-8l-8,8M464,66l8,8m0,-8l-8,8M464,75l8,8m0,-8l-8,8M488,596l8,8m0,-8l-8,8M488,584l8,8m0,-8l-8,8M488,579l8,8m0,-8l-8,8M488,567l8,8m0,-8l-8,8M488,562l8,8m0,-8l-8,8M488,571l8,8m0,-8l-8,8M488,561l8,8m0,-8l-8,8M488,560l8,8m0,-8l-8,8M488,548l8,8m0,-8l-8,8M488,556l8,8m0,-8l-8,8M488,542l8,8m0,-8l-8,8M488,77l8,8m0,-8l-8,8M488,90l8,8m0,-8l-8,8M488,73l8,8m0,-8l-8,8M488,66l8,8m0,-8l-8,8M488,47l8,8m0,-8l-8,8M488,52l8,8m0,-8l-8,8M512,552l8,8m0,-8l-8,8M512,547l8,8m0,-8l-8,8M512,551l8,8m0,-8l-8,8M512,66l8,8m0,-8l-8,8M512,75l8,8m0,-8l-8,8M512,65l8,8m0,-8l-8,8M512,64l8,8m0,-8l-8,8M512,36l8,8m0,-8l-8,8M512,44l8,8m0,-8l-8,8M536,564l8,8m0,-8l-8,8M536,72l8,8m0,-8l-8,8M536,67l8,8m0,-8l-8,8M536,52l8,8m0,-8l-8,8M536,36l8,8m0,-8l-8,8M560,580l8,8m0,-8l-8,8M560,552l8,8m0,-8l-8,8M560,547l8,8m0,-8l-8,8M560,551l8,8m0,-8l-8,8M584,564l8,8m0,-8l-8,8M584,552l8,8m0,-8l-8,8M584,547l8,8m0,-8l-8,8M608,600l8,8m0,-8l-8,8M608,595l8,8m0,-8l-8,8M608,564l8,8m0,-8l-8,8M608,548l8,8m0,-8l-8,8M632,584l8,8m0,-8l-8,8M632,579l8,8m0,-8l-8,8M632,583l8,8m0,-8l-8,8M632,548l8,8m0,-8l-8,8M656,580l8,8m0,-8l-8,8M656,52l8,8m0,-8l-8,8M680,580l8,8m0,-8l-8,8M680,532l8,8m0,-8l-8,8M680,84l8,8m0,-8l-8,8M680,68l8,8m0,-8l-8,8M752,580l8,8m0,-8l-8,8" style="stroke: #00009a; fill: none;"></path>
    </g>
   </svg>
   <g>
    <g transform="translate(0,640)">
     <path d="M0,0h960" style="stroke: black; stroke-width: 1;"></path>
     <path d="M0,-24v24m24,-12v12m24,-12v12m24,-12v12m24,-12v12m24,-24v24m24,-12v12m24,-12v12m24,-12v12m24,-12v12m24,-24v24m24,-12v12m24,-12v12m24,-12v12m24,-12v12m24,-24v24m24,-12v12m24,-12v12m24,-12v12m24,-12v12m24,-24v24m24,-12v12m24,-12v12m24,-12v12m24,-12v12m24,-24v24m24,-12v12m24,-12v12m24,-12v12m24,-12v12m24,-24v24m24,-12v12m24,-12v12m24,-12v12m24,-12v12m24,-24v24m24,-12v12m24,-12v12m24,-12v12m24,-12v12m24,-24v24" style="stroke: black; stroke-width: 1;"></path>
     <g font-family="Arial" font-size="28" space="preserve">
      <text fill="black" text-anchor="middle" dy=".8em" transform="translate(0,6)">
       -4
      </text>
      <text fill="black" text-anchor="middle" dy=".8em" transform="translate(120,6)">
       -3
      </text>
      <text fill="black" text-anchor="middle" dy=".8em" transform="translate(240,6)">
       -2
      </text>
      <text fill="black" text-anchor="middle" dy=".8em" transform="translate(360,6)">
       -1
      </text>
      <text fill="black" text-anchor="middle" dy=".8em" transform="translate(480,6)">
       0
      </text>
      <text fill="black" text-anchor="middle" dy=".8em" transform="translate(600,6)">
       1
      </text>
      <text fill="black" text-anchor="middle" dy=".8em" transform="translate(720,6)">
       2
      </text>
      <text fill="black" text-anchor="middle" dy=".8em" transform="translate(840,6)">
       3
      </text>
      <text fill="black" text-anchor="middle" dy=".8em" transform="translate(960,6)">
       4
      </text>
     </g>
    </g>
    <g>
     <path d="M0,0v640" style="stroke: black; stroke-width: 1;"></path>
     <path d="M36,640h-36m18,-16h-18m18,-16h-18m18,-16h-18m18,-16h-18m36,-16h-36m18,-16h-18m18,-16h-18m18,-16h-18m18,-16h-18m36,-16h-36m18,-16h-18m18,-16h-18m18,-16h-18m18,-16h-18m36,-16h-36m18,-16h-18m18,-16h-18m18,-16h-18m18,-16h-18m36,-16h-36m18,-16h-18m18,-16h-18m18,-16h-18m18,-16h-18m36,-16h-36m18,-16h-18m18,-16h-18m18,-16h-18m18,-16h-18m36,-16h-36m18,-16h-18m18,-16h-18m18,-16h-18m18,-16h-18m36,-16h-36m18,-16h-18m18,-16h-18m18,-16h-18m18,-16h-18m36,-16h-36" style="stroke: black; stroke-width: 1;"></path>
     <g font-family="Arial" font-size="28" space="preserve">
      <text fill="black" text-anchor="end" dy=".4em" transform="translate(-4,640)">
       -4
      </text>
      <text fill="black" text-anchor="end" dy=".4em" transform="translate(-4,560)">
       -3
      </text>
      <text fill="black" text-anchor="end" dy=".4em" transform="translate(-4,480)">
       -2
      </text>
      <text fill="black" text-anchor="end" dy=".4em" transform="translate(-4,400)">
       -1
      </text>
      <text fill="black" text-anchor="end" dy=".4em" transform="translate(-4,320)">
       0
      </text>
      <text fill="black" text-anchor="end" dy=".4em" transform="translate(-4,240)">
       1
      </text>
      <text fill="black" text-anchor="end" dy=".4em" transform="translate(-4,160)">
       2
      </text>
      <text fill="black" text-anchor="end" dy=".4em" transform="translate(-4,80)">
       3
      </text>
      <text fill="black" text-anchor="end" dy=".4em" transform="translate(-4)">
       4
      </text>
     </g>
    </g>
   </g>
  </g>
  <g transform="translate(120,4)" font-family="Arial" font-size="40" space="preserve">
   <path d="M0,0H960V53H0Z" style="fill: none;"></path>
   <text fill="black" text-anchor="middle" dy=".8em" transform="translate(480)">
    py vs px
   </text>
  </g>
  <g transform="translate(936,52)" font-family="Arial" font-size="20" space="preserve">
   <path d="M0,0H240V212H0Z" style="fill: white; stroke: black; stroke-width: 1;"></path>
   <text fill="black" text-anchor="middle" dy=".4em" transform="translate(120,18)">
    hpxpy
   </text>
   <text fill="black" text-anchor="start" dy=".4em" transform="translate(12,53)">
    Entries
   </text>
   <text fill="black" text-anchor="end" dy=".4em" transform="translate(228,53)">
    25000
   </text>
   <text fill="black" text-anchor="start" dy=".4em" transform="translate(12,88)">
    Mean x
   </text>
   <text fill="black" text-anchor="end" dy=".4em" transform="translate(228,88)">
    0.003181
   </text>
   <text fill="black" text-anchor="start" dy=".4em" transform="translate(12,124)">
    Mean y
   </text>
   <text fill="black" text-anchor="end" dy=".4em" transform="translate(228,124)">
    0.009441
   </text>
   <text fill="black" text-anchor="start" dy=".4em" transform="translate(12,159)">
    Std Dev x
   </text>
   <text fill="black" text-anchor="end" dy=".4em" transform="translate(228,159)">
    1.004
   </text>
   <text fill="black" text-anchor="start" dy=".4em" transform="translate(12,194)">
    Std Dev y
   </text>
   <text fill="black" text-anchor="end" dy=".4em" transform="translate(228,194)">
    0.9972
   </text>
   <path d="M0,35h240" style="stroke: black; stroke-width: 1;"></path>
  </g>
 </g>
</svg>
